svg/furkot/material-design/my-location.svg

<svg viewBox="0 0 512 512" xmlns="http://www.w3.org/2000/svg"><path d="m256 162.909c-51.2 0-93.091 41.891-93.091 93.091s41.891 93.091 93.091 93.091 93.091-41.891 93.091-93.091-41.891-93.091-93.091-93.091zm207.127 69.818c-11.636-97.745-88.436-174.545-183.854-183.854v-48.873h-46.546v48.873c-97.745 9.309-174.545 86.109-183.854 183.854h-48.873v46.546h48.873c11.636 97.745 88.436 174.545 183.854 183.854v48.873h46.546v-48.873c97.745-11.636 174.545-88.436 183.854-183.854h48.873v-46.546zm-207.127 186.182c-90.764 0-162.909-72.145-162.909-162.909s72.145-162.909 162.909-162.909 162.909 72.145 162.909 162.909-72.145 162.909-162.909 162.909z"/></svg>

<svg xmlns="http://www.w3.org/2000/svg" viewBox="0 0 512 512"><path d="M256 162.909C204.8 162.909 162.909 204.8 162.909 256 162.909 307.2 204.8 349.091 256 349.091 307.2 349.091 349.091 307.2 349.091 256 349.091 204.8 307.2 162.909 256 162.909ZM463.127 232.727C451.491 134.982 374.691 58.182 279.273 48.873V0H232.727V48.873C134.982 58.182 58.182 134.982 48.873 232.727H0V279.273H48.873C60.509 377.018 137.309 453.818 232.727 463.127V512H279.273V463.127C377.018 451.491 453.818 374.691 463.127 279.273H512V232.727H463.127ZM256 418.909C165.236 418.909 93.091 346.764 93.091 256S165.236 93.091 256 93.091 418.909 165.236 418.909 256 346.764 418.909 256 418.909Z"/></svg>
